X:1
T:Title
%%score 1 2
L:1/8
Q:1/4=100
M:3/4
K:E
V:1 treble nm="Grand Piano, Treble Clef"
V:2 bass nm="Choir Pad, Tamworth, 87.87.87"
V:1
 [EB]>[EG] [Ee]3 B | GE F2 B,2 | [B,E][EG] [CF][FA] [EG]2 | [DF]2 E4 | [EB]>[EG] [Ee]3 B | %5
w: By~Charles~Lockhart,~1790 * * *|||||
 GE F2 B,2 | [B,E][EG] [CF][FA] [EG]2 | [DF]2 E4 | [GB]>[EG] [FA]>[GB] [Ac]2 | %9
w: ||||
 [B,F]>[FA] [EG]>[FA] [GB]2 | [Ee]>[EB] [Ec][FA] [EG]2 | [DF]2 E4- | E4 z2 |] %13
w: ||||
V:2
 [E,G,]>[E,B,] [E,B,]3 B, | G,E, F,2 B,,2 | [G,B,][E,B,] A,[F,C] B,2 | [B,,A,]2 [E,G,]4 | %4
 [E,G,]>[E,B,] [E,B,]3 B, | G,E, F,2 B,,2 | [G,B,][E,B,] A,[F,C] B,2 | [B,,A,]2 [E,G,]4 | %8
 [G,B,]>[E,G,] [F,A,]>[G,B,] [A,C]2 | [B,,F,]>[F,A,] [E,G,]>[F,A,] [G,B,]2 | %10
 [G,B,]>[E,G,] A,[F,C] B,2 | [B,,A,]2 [E,G,]4- | [E,G,]4 z2 |] %13

